X: 37210
T: Siren, The
R: reel
M: 4/4
K: Bminor
fBBf gfef|edBd dBAd|fBBg gfea|afef b2 b2|
fBBf gfef|edBd dBAB|edBd dBdB|1 edBd dBde:|2 edBd dBdB||
|:efge afed|edBd dBAB|efge afed|efga b=c'bg|
efge afed|edBd dBAB|edBd BBAB|1 edBd dBAB:|2 edBd dBde||

